assets/Scissors/Flat/scissors_flat.svg

<svg width="32" height="32" viewBox="0 0 32 32" fill="none" xmlns="http://www.w3.org/2000/svg">
<path d="M6.44001 29.66L19.0773 17.0226L19 15L18 14L16 13.958L5.74001 24.21C4.43001 25.52 4.43001 27.65 5.74001 28.96L6.44001 29.66Z" fill="#9B9B9B"/>
<path d="M13 15L12.95 17.03L25.58 29.66L26.22 29.03C27.53 27.72 27.52 25.47 26.2 24.15L15.98 13.93H14L13 15ZM17.05 17.03C17.05 17.621 16.5709 18.1 15.98 18.1C15.389 18.1 14.91 17.621 14.91 17.03C14.91 16.4391 15.389 15.96 15.98 15.96C16.5709 15.96 17.05 16.4391 17.05 17.03Z" fill="#D3D3D3"/>
<path d="M15.02 9.53C15.02 10.52 14.78 11.48 14.37 12.32L15.99 13.94L12.96 17.04L11.29 15.39C10.45 15.8 9.5 16.04 8.5 16.04C4.9 16.04 2 13.12 2 9.52C2 5.92 4.9 3 8.5 3C12.1 3 15.02 5.92 15.02 9.53ZM5.48 9.52C5.48 11.19 6.84 12.55 8.51 12.55C10.18 12.55 11.54 11.2 11.54 9.52C11.54 7.85 10.18 6.49 8.51 6.49C6.84 6.49 5.48 7.85 5.48 9.52Z" fill="#F8312F"/>
<path d="M20.71 15.39L19.067 17.017L15.9993 13.9493L17.63 12.31C17.22 11.47 16.98 10.52 16.98 9.52C16.98 5.92 19.9 3 23.5 3C27.1 3 30 5.92 30 9.52C30 13.12 27.1 16.04 23.5 16.04C22.51 16.04 21.55 15.8 20.71 15.39ZM20.46 9.52C20.46 11.2 21.82 12.55 23.49 12.55C25.16 12.55 26.52 11.19 26.52 9.52C26.52 7.85 25.16 6.49 23.49 6.49C21.82 6.49 20.46 7.85 20.46 9.52Z" fill="#F8312F"/>
</svg>

<svg xmlns="http://www.w3.org/2000/svg" width="32" height="32" fill="none"><path fill="#9B9B9B" d="m6.44 29.66 12.637-12.637L19 15l-1-1-2-.042L5.74 24.21a3.362 3.362 0 0 0 0 4.75l.7.7Z"/><path fill="#D3D3D3" d="m13 15-.05 2.03 12.63 12.63.64-.63c1.31-1.31 1.3-3.56-.02-4.88L15.98 13.93H14L13 15Zm4.05 2.03a1.07 1.07 0 1 1-2.14 0 1.07 1.07 0 0 1 2.14 0Z"/><path fill="#F8312F" d="M15.02 9.53c0 .99-.24 1.95-.65 2.79l1.62 1.62-3.03 3.1-1.67-1.65c-.84.41-1.79.65-2.79.65-3.6 0-6.5-2.92-6.5-6.52C2 5.92 4.9 3 8.5 3s6.52 2.92 6.52 6.53Zm-9.54-.01c0 1.67 1.36 3.03 3.03 3.03 1.67 0 3.03-1.35 3.03-3.03 0-1.67-1.36-3.03-3.03-3.03-1.67 0-3.03 1.36-3.03 3.03ZM20.71 15.39l-1.643 1.627-3.068-3.068 1.631-1.639a6.36 6.36 0 0 1-.65-2.79C16.98 5.92 19.9 3 23.5 3 27.1 3 30 5.92 30 9.52c0 3.6-2.9 6.52-6.5 6.52-.99 0-1.95-.24-2.79-.65Zm-.25-5.87c0 1.68 1.36 3.03 3.03 3.03 1.67 0 3.03-1.36 3.03-3.03 0-1.67-1.36-3.03-3.03-3.03-1.67 0-3.03 1.36-3.03 3.03Z"/></svg>
